X: 1
T:Cuckold out o' Nest
M:2/2
C:
S:Chingford MM
N:
A:Chingford
O:English
R:Reel
%P:A.(AB)$^4$.A
P:A.(AB)4.A
L:1/8
K:G
I:speed 400
P:A
|:\
GA|BcBA  G2 ge|dedB  c2 Bc|dcBA  GFGA|B2 G2 G2:|\
P:B
Bc|d2 d2 d2 ed|c2 A2 A2 B2|c2 c2 c2 dc|BcBA  G2 \
GA|BcBA  G2 g2|dedB  c2 Bc|dcBA  GFGA|B2 G2 G2||
